logos/zettaai.svg

<?xml version="1.0" encoding="UTF-8"?>
<!DOCTYPE svg PUBLIC "-//W3C//DTD SVG 1.1//EN" "http://www.w3.org/Graphics/SVG/1.1/DTD/svg11.dtd">
<svg xmlns="http://www.w3.org/2000/svg" version="1.1" width="370px" height="158px" style="shape-rendering:geometricPrecision; text-rendering:geometricPrecision; image-rendering:optimizeQuality; fill-rule:evenodd; clip-rule:evenodd" xmlns:xlink="http://www.w3.org/1999/xlink">
<g><path style="opacity:1" fill="#000000" d="M -0.5,-0.5 C 122.833,-0.5 246.167,-0.5 369.5,-0.5C 369.5,52.1667 369.5,104.833 369.5,157.5C 246.167,157.5 122.833,157.5 -0.5,157.5C -0.5,104.833 -0.5,52.1667 -0.5,-0.5 Z"/></g>
<g><path style="opacity:1" fill="#f6f6f6" d="M 322.5,47.5 C 317.637,47.8195 312.97,47.4861 308.5,46.5C 312.01,43.1666 316.01,42.6666 320.5,45C 321.381,45.7083 322.047,46.5416 322.5,47.5 Z"/></g>
<g><path style="opacity:1" fill="#f9f9f9" d="M 172.5,45.5 C 173.483,49.2984 173.817,53.2984 173.5,57.5C 177.167,57.5 180.833,57.5 184.5,57.5C 184.5,60.8333 184.5,64.1667 184.5,67.5C 180.833,67.5 177.167,67.5 173.5,67.5C 173.175,75.0191 173.508,82.3524 174.5,89.5C 174.414,90.4959 174.748,91.3292 175.5,92C 178.507,92.3013 181.507,92.1346 184.5,91.5C 184.5,95.1667 184.5,98.8333 184.5,102.5C 179.528,103.422 174.528,103.588 169.5,103C 164.952,100.956 162.619,97.456 162.5,92.5C 162.5,84.1667 162.5,75.8333 162.5,67.5C 156.974,67.1786 151.64,67.5119 146.5,68.5C 146.334,76.1739 146.5,83.8406 147,91.5C 150.095,92.3949 153.262,92.3949 156.5,91.5C 156.823,95.226 156.489,98.8927 155.5,102.5C 150.103,103.943 144.77,103.777 139.5,102C 136.641,99.4475 134.974,96.2808 134.5,92.5C 134.5,84.1667 134.5,75.8333 134.5,67.5C 132.167,67.5 129.833,67.5 127.5,67.5C 127.5,64.1667 127.5,60.8333 127.5,57.5C 129.833,57.5 132.167,57.5 134.5,57.5C 134.5,54.1667 134.5,50.8333 134.5,47.5C 138.198,46.6586 141.864,45.6586 145.5,44.5C 146.492,48.7828 146.826,53.1161 146.5,57.5C 151.5,57.5 156.5,57.5 161.5,57.5C 161.5,54.1667 161.5,50.8333 161.5,47.5C 165.136,46.6745 168.803,46.0078 172.5,45.5 Z"/></g>
<g><path style="opacity:1" fill="#6a6a6a" d="M 308.5,46.5 C 312.97,47.4861 317.637,47.8195 322.5,47.5C 317.652,48.8137 312.652,48.8137 307.5,47.5C 307.624,46.8933 307.957,46.56 308.5,46.5 Z"/></g>
<g><path style="opacity:1" fill="#797979" d="M 134.5,47.5 C 134.5,50.8333 134.5,54.1667 134.5,57.5C 132.167,57.5 129.833,57.5 127.5,57.5C 129.265,56.5386 131.265,56.2053 133.5,56.5C 133.19,53.2869 133.523,50.2869 134.5,47.5 Z"/></g>
<g><path style="opacity:1" fill="#515151" d="M 323.5,53.5 C 317.974,53.1786 312.64,53.5119 307.5,54.5C 306.957,54.44 306.624,54.1067 306.5,53.5C 312.32,52.1843 317.987,52.1843 323.5,53.5 Z"/></g>
<g><path style="opacity:1" fill="#f7f7f7" d="M 323.5,53.5 C 320.558,59.6461 315.891,61.1461 309.5,58C 308.177,57.1841 307.511,56.0174 307.5,54.5C 312.64,53.5119 317.974,53.1786 323.5,53.5 Z"/></g>
<g><path style="opacity:1" fill="#6c6c6c" d="M 172.5,45.5 C 172.56,44.9569 172.893,44.6236 173.5,44.5C 174.491,48.4454 174.824,52.4454 174.5,56.5C 178.042,56.1872 181.375,56.5206 184.5,57.5C 180.833,57.5 177.167,57.5 173.5,57.5C 173.817,53.2984 173.483,49.2984 172.5,45.5 Z"/></g>
<g><path style="opacity:1" fill="#838383" d="M 84.5,61.5 C 70.8333,61.5 57.1667,61.5 43.5,61.5C 43.5,65.1667 43.5,68.8333 43.5,72.5C 42.5166,68.7016 42.1832,64.7016 42.5,60.5C 56.6766,60.1709 70.6766,60.5042 84.5,61.5 Z"/></g>
<g><path style="opacity:1" fill="#f7f7f7" d="M 100.5,59.5 C 118.844,59.1771 127.844,68.1771 127.5,86.5C 124.813,86.3359 122.146,86.5026 119.5,87C 121.977,88.6427 124.31,90.476 126.5,92.5C 119.552,102.08 110.219,105.58 98.5,103C 86.7502,97.1397 82.2502,87.6397 85,74.5C 88.1058,67.2253 93.2724,62.2253 100.5,59.5 Z"/></g>
<g><path style="opacity:1" fill="#fbfbfb" d="M 217.5,63.5 C 221.514,61.6658 225.847,60.9992 230.5,61.5C 230.5,75.1667 230.5,88.8333 230.5,102.5C 225.588,103.026 220.922,102.359 216.5,100.5C 202.639,106.658 192.805,102.658 187,88.5C 184.12,72.9049 190.287,63.2382 205.5,59.5C 209.855,59.8405 213.855,61.1738 217.5,63.5 Z"/></g>
<g><path style="opacity:1" fill="#888888" d="M 230.5,61.5 C 225.847,60.9992 221.514,61.6658 217.5,63.5C 217.5,62.5 217.5,61.5 217.5,60.5C 222.032,60.1818 226.366,60.5151 230.5,61.5 Z"/></g>
<g><path style="opacity:1" fill="#898989" d="M 301.5,61.5 C 296.847,60.9992 292.514,61.6658 288.5,63.5C 288.5,62.5 288.5,61.5 288.5,60.5C 293.032,60.1818 297.366,60.5151 301.5,61.5 Z"/></g>
<g><path style="opacity:1" fill="#fcfcfc" d="M 84.5,61.5 C 77.8333,70.8333 71.1667,80.1667 64.5,89.5C 63.9569,89.56 63.6236,89.8933 63.5,90.5C 69.7985,91.4963 76.1318,91.8297 82.5,91.5C 82.5,95.1667 82.5,98.8333 82.5,102.5C 68.496,102.667 54.496,102.5 40.5,102C 47.8333,92.3333 55.1667,82.6667 62.5,73C 56.1754,72.5005 49.8421,72.3338 43.5,72.5C 43.5,68.8333 43.5,65.1667 43.5,61.5C 57.1667,61.5 70.8333,61.5 84.5,61.5 Z"/></g>
<g><path style="opacity:1" fill="#f3f3f3" d="M 288.5,63.5 C 292.514,61.6658 296.847,60.9992 301.5,61.5C 301.5,63.8333 301.5,66.1667 301.5,68.5C 288.163,68.6666 274.829,68.4999 261.5,68C 267.501,60.7681 275.167,58.4347 284.5,61C 285.693,62.0946 287.027,62.928 288.5,63.5 Z"/></g>
<g><path style="opacity:1" fill="#7f7f7f" d="M 321.5,61.5 C 317.5,61.5 313.5,61.5 309.5,61.5C 309.5,63.8333 309.5,66.1667 309.5,68.5C 308.527,66.0521 308.194,63.3854 308.5,60.5C 313.032,60.1818 317.366,60.5151 321.5,61.5 Z"/></g>
<g><path style="opacity:1" fill="#f9f9f9" d="M 321.5,61.5 C 321.5,63.8333 321.5,66.1667 321.5,68.5C 317.5,68.5 313.5,68.5 309.5,68.5C 309.5,66.1667 309.5,63.8333 309.5,61.5C 313.5,61.5 317.5,61.5 321.5,61.5 Z"/></g>
<g><path style="opacity:1" fill="#818181" d="M 127.5,67.5 C 129.833,67.5 132.167,67.5 134.5,67.5C 134.5,75.8333 134.5,84.1667 134.5,92.5C 133.508,84.6841 133.174,76.6841 133.5,68.5C 131.265,68.7947 129.265,68.4614 127.5,67.5 Z"/></g>
<g><path style="opacity:1" fill="#929292" d="M 146.5,68.5 C 151.64,67.5119 156.974,67.1786 162.5,67.5C 162.5,75.8333 162.5,84.1667 162.5,92.5C 161.508,84.6841 161.174,76.6841 161.5,68.5C 156.5,68.5 151.5,68.5 146.5,68.5 Z"/></g>
<g><path style="opacity:1" fill="#8d8d8d" d="M 184.5,67.5 C 181.375,68.4794 178.042,68.8128 174.5,68.5C 174.5,75.5 174.5,82.5 174.5,89.5C 173.508,82.3524 173.175,75.0191 173.5,67.5C 177.167,67.5 180.833,67.5 184.5,67.5 Z"/></g>
<g><path style="opacity:1" fill="#0a0a0a" d="M 101.5,72.5 C 104.978,72.1842 108.312,72.6842 111.5,74C 107.833,74.6667 104.167,74.6667 100.5,74C 101.056,73.6174 101.389,73.1174 101.5,72.5 Z"/></g>
<g><path style="opacity:1" fill="#070707" d="M 205.5,72.5 C 215.039,71.8694 219.206,76.2028 218,85.5C 215.367,90.7315 211.201,92.5649 205.5,91C 200.581,88.2588 198.748,84.0921 200,78.5C 201.36,75.9774 203.193,73.9774 205.5,72.5 Z"/></g>
<g><path style="opacity:1" fill="#ededed" d="M 258.5,73.5 C 263.844,73.334 269.177,73.5006 274.5,74C 272.586,75.4133 271.253,77.2466 270.5,79.5C 266.217,80.4922 261.884,80.8256 257.5,80.5C 257.298,78.0504 257.631,75.717 258.5,73.5 Z"/></g>
<g><path style="opacity:1" fill="#ededed" d="M 285.5,74.5 C 290.64,73.5119 295.974,73.1786 301.5,73.5C 301.5,75.8333 301.5,78.1667 301.5,80.5C 297.445,80.8242 293.445,80.4909 289.5,79.5C 288.867,77.2145 287.534,75.5478 285.5,74.5 Z"/></g>
<g><path style="opacity:1" fill="#fefefe" d="M 321.5,74.5 C 321.5,76.1667 321.5,77.8333 321.5,79.5C 317.5,79.5 313.5,79.5 309.5,79.5C 309.5,77.8333 309.5,76.1667 309.5,74.5C 313.5,74.5 317.5,74.5 321.5,74.5 Z"/></g>
<g><path style="opacity:1" fill="#b7b7b7" d="M 321.5,74.5 C 317.5,74.5 313.5,74.5 309.5,74.5C 309.5,76.1667 309.5,77.8333 309.5,79.5C 313.5,79.5 317.5,79.5 321.5,79.5C 317.366,80.4849 313.032,80.8182 308.5,80.5C 308.5,78.1667 308.5,75.8333 308.5,73.5C 313.032,73.1818 317.366,73.5151 321.5,74.5 Z"/></g>
<g><path style="opacity:1" fill="#0a0a0a" d="M 97.5,87.5 C 103.319,86.3475 109.319,86.1808 115.5,87C 109.611,92.7257 103.611,92.8923 97.5,87.5 Z"/></g>
<g><path style="opacity:1" fill="#f8f8f8" d="M 275.5,90.5 C 270.36,91.4881 265.026,91.8214 259.5,91.5C 258.27,89.7028 257.604,87.7028 257.5,85.5C 264.539,84.3335 270.539,86.0002 275.5,90.5 Z"/></g>
<g><path style="opacity:1" fill="#f8f8f8" d="M 301.5,91.5 C 295.642,91.8222 289.975,91.4889 284.5,90.5C 289.112,86.0448 294.779,84.3781 301.5,85.5C 301.5,87.5 301.5,89.5 301.5,91.5 Z"/></g>
<g><path style="opacity:1" fill="#fbfbfb" d="M 309.5,85.5 C 313.5,85.5 317.5,85.5 321.5,85.5C 321.5,87.5 321.5,89.5 321.5,91.5C 317.5,91.5 313.5,91.5 309.5,91.5C 309.5,89.5 309.5,87.5 309.5,85.5 Z"/></g>
<g><path style="opacity:1" fill="#e2e2e2" d="M 242.5,86.5 C 246.917,86.0417 250.25,87.7083 252.5,91.5C 247.5,92.8333 242.5,92.8333 237.5,91.5C 238.882,89.4514 240.548,87.7847 242.5,86.5 Z"/></g>
<g><path style="opacity:1" fill="#656565" d="M 64.5,89.5 C 70.5,90.1667 76.5,90.8333 82.5,91.5C 76.1318,91.8297 69.7985,91.4963 63.5,90.5C 63.6236,89.8933 63.9569,89.56 64.5,89.5 Z"/></g>
<g><path style="opacity:1" fill="#888888" d="M 275.5,90.5 C 278.5,91.8333 281.5,91.8333 284.5,90.5C 289.975,91.4889 295.642,91.8222 301.5,91.5C 287.5,92.8333 273.5,92.8333 259.5,91.5C 265.026,91.8214 270.36,91.4881 275.5,90.5 Z"/></g>
<g><path style="opacity:1" fill="#888888" d="M 309.5,85.5 C 309.5,87.5 309.5,89.5 309.5,91.5C 313.5,91.5 317.5,91.5 321.5,91.5C 317.366,92.4849 313.032,92.8182 308.5,92.5C 308.198,89.9407 308.532,87.6074 309.5,85.5 Z"/></g>
<g><path style="opacity:1" fill="#f5f5f5" d="M 237.5,97.5 C 242.844,97.334 248.177,97.5006 253.5,98C 250.12,103.539 245.453,104.872 239.5,102C 237.963,100.89 237.297,99.3904 237.5,97.5 Z"/></g>
<g><path style="opacity:1" fill="#f8f8f8" d="M 263.5,98.5 C 275.989,97.5046 288.656,97.1713 301.5,97.5C 301.5,99.1667 301.5,100.833 301.5,102.5C 296.588,103.026 291.922,102.359 287.5,100.5C 279.043,104.943 271.043,104.276 263.5,98.5 Z"/></g>
<g><path style="opacity:1" fill="#f5f5f5" d="M 308.5,97.5 C 312.833,97.5 317.167,97.5 321.5,97.5C 321.5,99.1667 321.5,100.833 321.5,102.5C 317.167,102.5 312.833,102.5 308.5,102.5C 308.5,100.833 308.5,99.1667 308.5,97.5 Z"/></g>
</svg>

<svg xmlns="http://www.w3.org/2000/svg" width="370" height="158" style="shape-rendering:geometricPrecision;text-rendering:geometricPrecision;image-rendering:optimizeQuality;fill-rule:evenodd;clip-rule:evenodd"><path style="opacity:1" d="M-.5-.5h370v158H-.5V-.5z"/><path style="opacity:1" fill="#f6f6f6" d="M322.5 47.5c-4.863.32-9.53-.014-14-1 3.51-3.333 7.51-3.833 12-1.5.881.708 1.547 1.542 2 2.5z"/><path style="opacity:1" fill="#f9f9f9" d="M172.5 45.5c.983 3.798 1.317 7.798 1 12h11v10h-11c-.325 7.52.008 14.852 1 22-.086.996.248 1.83 1 2.5 3.007.301 6.007.135 9-.5v11a49.974 49.974 0 0 1-15 .5c-4.548-2.044-6.881-5.544-7-10.5v-25c-5.526-.321-10.86.012-16 1-.166 7.674 0 15.34.5 23 3.095.895 6.262.895 9.5 0a31.117 31.117 0 0 1-1 11c-5.397 1.443-10.73 1.277-16-.5-2.859-2.552-4.526-5.72-5-9.5v-25h-7v-10h7v-10a134.495 134.495 0 0 0 11-3 43.116 43.116 0 0 1 1 13h15v-10a128.865 128.865 0 0 1 11-2z"/><path style="opacity:1" fill="#6a6a6a" d="M308.5 46.5c4.47.986 9.137 1.32 14 1-4.848 1.314-9.848 1.314-15 0 .124-.607.457-.94 1-1z"/><path style="opacity:1" fill="#797979" d="M134.5 47.5v10h-7c1.765-.961 3.765-1.295 6-1-.31-3.213.023-6.213 1-9z"/><path style="opacity:1" fill="#515151" d="M323.5 53.5c-5.526-.321-10.86.012-16 1-.543-.06-.876-.393-1-1 5.82-1.316 11.487-1.316 17 0z"/><path style="opacity:1" fill="#f7f7f7" d="M323.5 53.5c-2.942 6.146-7.609 7.646-14 4.5-1.323-.816-1.989-1.983-2-3.5 5.14-.988 10.474-1.321 16-1z"/><path style="opacity:1" fill="#6c6c6c" d="M172.5 45.5c.06-.543.393-.876 1-1a36.877 36.877 0 0 1 1 12c3.542-.313 6.875.02 10 1h-11c.317-4.202-.017-8.202-1-12z"/><path style="opacity:1" fill="#838383" d="M84.5 61.5h-41v11c-.983-3.798-1.317-7.798-1-12 14.177-.33 28.177.004 42 1z"/><path style="opacity:1" fill="#f7f7f7" d="M100.5 59.5c18.344-.323 27.344 8.677 27 27a32.438 32.438 0 0 0-8 .5 55.454 55.454 0 0 1 7 5.5c-6.948 9.58-16.281 13.08-28 10.5C86.75 97.14 82.25 87.64 85 74.5c3.106-7.275 8.272-12.275 15.5-15z"/><path style="opacity:1" fill="#fbfbfb" d="M217.5 63.5c4.014-1.834 8.347-2.5 13-2v41c-4.912.526-9.578-.141-14-2-13.861 6.158-23.695 2.158-29.5-12-2.88-15.595 3.287-25.262 18.5-29 4.355.34 8.355 1.674 12 4z"/><path style="opacity:1" fill="#888" d="M230.5 61.5c-4.653-.5-8.986.166-13 2v-3c4.532-.318 8.866.015 13 1z"/><path style="opacity:1" fill="#898989" d="M301.5 61.5c-4.653-.5-8.986.166-13 2v-3c4.532-.318 8.866.015 13 1z"/><path style="opacity:1" fill="#fcfcfc" d="m84.5 61.5-20 28c-.543.06-.876.393-1 1a91.124 91.124 0 0 0 19 1v11c-14.004.167-28.004 0-42-.5l22-29a180.95 180.95 0 0 0-19-.5v-11h41z"/><path style="opacity:1" fill="#f3f3f3" d="M288.5 63.5c4.014-1.834 8.347-2.5 13-2v7c-13.337.167-26.671 0-40-.5 6.001-7.232 13.667-9.565 23-7a12.648 12.648 0 0 0 4 2.5z"/><path style="opacity:1" fill="#7f7f7f" d="M321.5 61.5h-12v7c-.973-2.448-1.306-5.115-1-8 4.532-.318 8.866.015 13 1z"/><path style="opacity:1" fill="#f9f9f9" d="M321.5 61.5v7h-12v-7h12z"/><path style="opacity:1" fill="#818181" d="M127.5 67.5h7v25c-.992-7.816-1.326-15.816-1-24-2.235.295-4.235-.039-6-1z"/><path style="opacity:1" fill="#929292" d="M146.5 68.5c5.14-.988 10.474-1.321 16-1v25c-.992-7.816-1.326-15.816-1-24h-15z"/><path style="opacity:1" fill="#8d8d8d" d="M184.5 67.5c-3.125.98-6.458 1.313-10 1v21c-.992-7.148-1.325-14.48-1-22h11z"/><path style="opacity:1" fill="#0a0a0a" d="M101.5 72.5c3.478-.316 6.812.184 10 1.5a30.499 30.499 0 0 1-11 0c.556-.383.889-.883 1-1.5z"/><path style="opacity:1" fill="#070707" d="M205.5 72.5c9.539-.63 13.706 3.703 12.5 13-2.633 5.231-6.799 7.065-12.5 5.5-4.919-2.741-6.752-6.908-5.5-12.5 1.36-2.523 3.193-4.523 5.5-6z"/><path style="opacity:1" fill="#ededed" d="M258.5 73.5c5.344-.166 10.677 0 16 .5-1.914 1.413-3.247 3.247-4 5.5a43.123 43.123 0 0 1-13 1c-.202-2.45.131-4.783 1-7zM285.5 74.5c5.14-.988 10.474-1.321 16-1v7a36.872 36.872 0 0 1-12-1c-.633-2.285-1.966-3.952-4-5z"/><path style="opacity:1" fill="#fefefe" d="M321.5 74.5v5h-12v-5h12z"/><path style="opacity:1" fill="#b7b7b7" d="M321.5 74.5h-12v5h12c-4.134.985-8.468 1.318-13 1v-7c4.532-.318 8.866.015 13 1z"/><path style="opacity:1" fill="#0a0a0a" d="M97.5 87.5c5.819-1.153 11.819-1.32 18-.5-5.889 5.726-11.889 5.892-18 .5z"/><path style="opacity:1" fill="#f8f8f8" d="M275.5 90.5c-5.14.988-10.474 1.321-16 1-1.23-1.797-1.896-3.797-2-6 7.039-1.166 13.039.5 18 5zM301.5 91.5c-5.858.322-11.525-.011-17-1 4.612-4.455 10.279-6.122 17-5v6z"/><path style="opacity:1" fill="#fbfbfb" d="M309.5 85.5h12v6h-12v-6z"/><path style="opacity:1" fill="#e2e2e2" d="M242.5 86.5c4.417-.458 7.75 1.208 10 5-5 1.333-10 1.333-15 0 1.382-2.049 3.048-3.715 5-5z"/><path style="opacity:1" fill="#656565" d="m64.5 89.5 18 2a91.124 91.124 0 0 1-19-1c.124-.607.457-.94 1-1z"/><path style="opacity:1" fill="#888" d="M275.5 90.5c3 1.333 6 1.333 9 0 5.475.989 11.142 1.322 17 1-14 1.333-28 1.333-42 0 5.526.321 10.86-.012 16-1zM309.5 85.5v6h12c-4.134.985-8.468 1.318-13 1-.302-2.56.032-4.893 1-7z"/><path style="opacity:1" fill="#f5f5f5" d="M237.5 97.5c5.344-.166 10.677 0 16 .5-3.38 5.539-8.047 6.872-14 4-1.537-1.11-2.203-2.61-2-4.5z"/><path style="opacity:1" fill="#f8f8f8" d="M263.5 98.5a361.581 361.581 0 0 1 38-1v5c-4.912.526-9.578-.141-14-2-8.457 4.443-16.457 3.776-24-2z"/><path style="opacity:1" fill="#f5f5f5" d="M308.5 97.5h13v5h-13v-5z"/></svg>
